htaccess/icons/archive.svg

<svg height="100" viewBox="0 0 100 100" width="100" xmlns="http://www.w3.org/2000/svg"><path d="m67.75 0h-49.917c-2.761 0-5 2.239-5 5v90c0 2.761 2.239 5 5 5h65.333c2.761 0 5-2.239 5-5v-74.583z" fill="#363a56"/><g fill="#fff"><path d="m67.75 15.417c0 2.761 2.239 5 5 5h15.417l-20.417-20.417z" opacity=".3"/><path d="m28.868 2.75h-3.069v-2.75h3.069zm3.068 0h-3.069v2.75h3.069zm-3.068 2.75h-3.069v2.75h3.069zm3.068 2.75h-3.069v2.75h3.069zm-3.068 2.75h-3.069v2.75h3.069zm3.068 2.75h-3.069v2.75h3.069zm-3.068 2.75h-3.069v2.75h3.069zm3.068 2.75h-3.069v2.75h3.069zm-3.068 2.75h-3.069v2.75h3.069zm3.068 2.75h-3.069v2.75h3.069zm-3.068 2.75h-3.069v2.75h3.069zm3.068 2.75h-3.069v2.75h3.069zm-3.068 2.75h-3.069v2.75h3.069zm3.068 2.75h-3.069v2.75h3.069zm-3.068 2.75h-3.069v2.75h3.069zm3.068 2.75h-3.069v2.75h3.069zm-3.068 2.75h-3.069v2.75h3.069zm3.068 2.75h-3.069v2.75h3.069zm-3.068 2.75h-3.069v2.75h3.069zm3.068 2.75h-3.069v2.75h3.069zm-3.068 2.75h-3.069v2.75h3.069zm3.068 2.75h-3.069v2.75h3.069zm1.598 11.5v-8.75h-9.333v8.75zm0 1v2.5h-9.333v-2.5z"/></g></svg>

<svg version="1.1" xmlns="http://www.w3.org/2000/svg" xmlns:xlink="http://www.w3.org/1999/xlink" width="100px" height="100px" viewBox="0 0 100 100" xml:space="preserve">
<path fill="#363A56" d="M67.75,0H17.833c-2.761,0-5,2.239-5,5v90c0,2.761,2.239,5,5,5h65.333c2.761,0,5-2.239,5-5V20.417L67.75,0z"
	/>
<path opacity="0.3" fill="#FFFFFF" d="M67.75,15.417c0,2.761,2.239,5,5,5h15.417L67.75,0V15.417z"/>
<path fill="#FFFFFF" d="M28.868,2.75h-3.069V0h3.069V2.75z M31.936,2.75h-3.069V5.5h3.069V2.75z M28.868,5.5h-3.069v2.75h3.069V5.5z
	 M31.936,8.25h-3.069V11h3.069V8.25z M28.868,11h-3.069v2.75h3.069V11z M31.936,13.75h-3.069v2.75h3.069V13.75z M28.868,16.5h-3.069
	v2.75h3.069V16.5z M31.936,19.25h-3.069V22h3.069V19.25z M28.868,22h-3.069v2.75h3.069V22z M31.936,24.75h-3.069v2.75h3.069V24.75z
	 M28.868,27.5h-3.069v2.75h3.069V27.5z M31.936,30.25h-3.069V33h3.069V30.25z M28.868,33h-3.069v2.75h3.069V33z M31.936,35.75
	h-3.069v2.75h3.069V35.75z M28.868,38.5h-3.069v2.75h3.069V38.5z M31.936,41.25h-3.069V44h3.069V41.25z M28.868,44h-3.069v2.75
	h3.069V44z M31.936,46.75h-3.069v2.75h3.069V46.75z M28.868,49.5h-3.069v2.75h3.069V49.5z M31.936,52.25h-3.069V55h3.069V52.25z
	 M28.868,55h-3.069v2.75h3.069V55z M31.936,57.75h-3.069v2.75h3.069V57.75z M33.534,69.25V60.5h-9.333v8.75H33.534z M33.534,70.25
	v2.5h-9.333v-2.5H33.534z"/>
</svg>
